X: 2292
T: Thro' the Wood she ran.   a Reel.
%R: reel
B: Niel Gow & Sons "Complete Repository" v.2 p.29 #2
Z: 2021 John Chambers <jc:trillian.mit.edu>
M: C|
L: 1/8
K: F
% - - - - - - - - - -
% Voice 1 reformatted for 2 4-bar lines, for compactness and proofreading.
V: 1 staves=2
c | Tf>gag fddf | cFcA G2Gc | Tf>gag fddf | cAfc A/A/A A :|
|: B | Tc>dcA TF>GAB | cdcA G2GA | TcdcA TF>GAB | cAfc A/A/A A :|
% - - - - - - - - - -
% Voice 2 preserves the staff layout in the book.
V: 2 clef=bass middle=d
z | f2f2 B2B2 | f2f2 g2g2 | f2f2 B2B2 | [f2F2][f2F2] [f2F2][fF] :|
|: z |\
[f2F2][f2F2] [f2F2][f2F2] | [f2F2][f2F2] [g2G2][g2G2] |\
[f2F2][f2F2] [f2F2][f2F2] | [f2F2][c2C2] [f2F2][fF] :|


